X: 1650
T: Sabâ Örnek-öz
C: Rûhî Ayangil
O: Turkey
F: http://compmusic.upf.edu/node/140
N: saba--ornek-oz--sofyan--3--ruhi_ayangil
N: makam= saba
N: form= ornek-oz
N: usul= sofyan = 4/4
M: 4/4
L: 1/16
K: C _2/4B _3/4d  
Q: 1/4=60
%%MIDI tuningsystem comma53
A3_1/4B c3d B3d d4  | (3e2d2c2 (3d2c2B2 c8  | \
w:   |   | 
e3f g3_7/8a f3a a4  | 
w:   | 
(3g2f2e2 (3d2c2B2 A8  | |


